files/resources/svgs/general/s-user-plus.svg

<svg width="24" height="24" viewBox="0 0 24 24" fill="none" xmlns="http://www.w3.org/2000/svg">
<path d="M6.25 6.375C6.25 4.09683 8.09683 2.25 10.375 2.25C12.6532 2.25 14.5 4.09683 14.5 6.375C14.5 8.65317 12.6532 10.5 10.375 10.5C8.09683 10.5 6.25 8.65317 6.25 6.375Z" fill="#0F172A"/>
<path d="M3.25 19.125C3.25 15.19 6.43997 12 10.375 12C14.31 12 17.5 15.19 17.5 19.125V19.1276C17.5 19.1674 17.4996 19.2074 17.499 19.2469C17.4946 19.5054 17.3574 19.7435 17.1359 19.8768C15.1607 21.0661 12.8466 21.75 10.375 21.75C7.90343 21.75 5.5893 21.0661 3.61406 19.8768C3.39256 19.7435 3.25537 19.5054 3.25103 19.2469C3.25034 19.2064 3.25 19.1657 3.25 19.125Z" fill="#0F172A"/>
<path d="M19.75 7.5C19.75 7.08579 19.4142 6.75 19 6.75C18.5858 6.75 18.25 7.08579 18.25 7.5V9.75H16C15.5858 9.75 15.25 10.0858 15.25 10.5C15.25 10.9142 15.5858 11.25 16 11.25H18.25V13.5C18.25 13.9142 18.5858 14.25 19 14.25C19.4142 14.25 19.75 13.9142 19.75 13.5V11.25H22C22.4142 11.25 22.75 10.9142 22.75 10.5C22.75 10.0858 22.4142 9.75 22 9.75H19.75V7.5Z" fill="#0F172A"/>
</svg>

<svg xmlns="http://www.w3.org/2000/svg" viewBox="0 0 24 24" fill="currentColor" aria-hidden="true">
  <path d="M6.25 6.375a4.125 4.125 0 118.25 0 4.125 4.125 0 01-8.25 0zM3.25 19.125a7.125 7.125 0 0114.25 0v.003l-.001.119a.75.75 0 01-.363.63 13.067 13.067 0 01-6.761 1.873c-2.472 0-4.786-.684-6.76-1.873a.75.75 0 01-.364-.63l-.001-.122zM19.75 7.5a.75.75 0 00-1.5 0v2.25H16a.75.75 0 000 1.5h2.25v2.25a.75.75 0 001.5 0v-2.25H22a.75.75 0 000-1.5h-2.25V7.5z"/>
</svg>
